X: 40248
T: Titanic, The
R: reel
M: 4/4
K: Amixolydian
eA~A2 eAfA|eA~A2 g2fa|eA~A2 eage|1 dBGB g2fa:|2 dBGB g2fg||
aA~A2 fA~A2|aA~A2 g2fg|aA~A2 eage|dBGB g2fg|
aA~A2 BG~G2|BA~A2 g2fa|abaf gage|dBGB gbag||

